!!!COM: Bach, Johann Sebastian
!!!CDT: 1685///-1750///
!!!CNT@EN: German
!!!OPR@DE: Musikalisches, BWV 1007
!!!OPR@EN: Musical Offering, BWV 1007
!!!OMD: Andante
!!!OMV: No. 14
!!!ODT: 1747///
!!!SCT: BWV 1079
!!!SCA: Thematisch-systematisches Verzeichnis der musikalischen Werke Johann Sebastian Bach: Bach-Werke-Verzeichnis (Schmieder)
**kern	**kern	**dynam	**kern	**dynam
*staff3	*staff2	*staff2	*staff1	*staff1
*Icemba	*Ivioln	*Ivioln	*Iflt_a	*Iflt_a
*clefF4	*clefG2	*clefG2	*clefG2	*clefG2
*k[b-e-a-]	*k[b-e-a-]	*k[b-e-a-]	*k[b-e-a-]	*k[b-e-a-]
*met(C)	*met(C)	*met(C)	*met(C)	*met(C)
*M4/4	*M4/4	*M4/4	*M4/4	*M4/4
*MM72	*MM72	*MM72	*MM72	*MM72
=1-	=1-	=1-	=1-	=1-
4E-\	8r	.	8r	.
.	(8g/L	.	(8b-\L	.
4r	8a-/	.	8cc\	.
.	[8b-/J	.	[8dd-\J	.
4EE-/	8b-/L]	.	8dd-\L]	.
.	16a-/L)	.	16cc\L)	.
.	16d-/JJ	.	16b-'\JJ	.
8r	(16d-/LL	.	16b-/LL	.
.	16c/JJ)	.	16a-/JJ	.
8EE-/	16r	.	16r	.
.	16e-/	p	16g/	p
=2	=2	=2	=2	=2
4E-\	(16e-/LL	.	(16g/LL	.
.	16d/JJ)	.	16f/JJ)	.
.	(8f/L	f	(8ddn\L	f
4r	8g/	.	8ee-\	.
.	[8a-/J	.	[8ff\J	.
4EE-/	8a-/L]	.	8ff\L]	.
.	16g/L)	.	16ee-\L)	.
.	16cc'/JJ	.	16a-'\JJ	.
8r	(16cc\LL	.	(16a-/LL	.
.	16b-\JJ)	.	16g/JJ)	.
8EE-/	16r	.	16r	.
.	16a-/	p	16d/	p
=3	=3	=3	=3	=3
8E-\	(16a-/LL	.	(16d/LL	.
.	16g/JJ)	.	16e-/JJ)	.
(8B-\L	8r	.	8r	.
8c\	4r	.	4r	.
[8d-\J	.	.	.	.
8d-\L])	4.een\	f	4.g/	f
(16c\L	.	.	.	.
16B-\JJ)	.	.	.	.
(16B-\LL	.	.	.	.
16c\J)	.	.	.	.
8En\J	16r	.	16r	.
.	16g/	.	16b-\	.
=4	=4	=4	=4	=4
8FF/	(16g/LL	.	16b-/LL	.
.	16f/JJ)	.	16a-/JJ	.
(8c\L	8r	.	8r	.
8d-\	4r	.	4r	.
[8e-\J	.	.	.	.
8e-\L])	4.an/	.	4.gg-\	.
(16d-\L	.	.	.	.
16c\JJ)	.	.	.	.
(16c\LL	.	.	.	.
16d-\J)	.	.	.	.
8F\J	16r	.	16r	.
.	16aan'\	.	16ee-'\	.
=5	=5	=5	=5	=5
8GG-/L	(16aan\LL	.	(16ee-\LL	.
.	16bb-\JJ)	.	16dd-\JJ)	.
8G-/	16r	.	16r	.
.	16dd-'\	p	16b-'\	p
8G-/	(16dd-\LL	.	(16b-\LL	.
.	16cc\JJ)	.	16an\JJ)	.
8GG-/J	16r	.	16r	.
.	16cc'\	f	16aan'\	f
8FF/L	(16cc\LL	.	(16aa\LL	.
.	16dd-\JJ)	.	16bb-\JJ)	.
8F/	16r	.	16r	.
.	16b-'\	p	16dd-'\	p
8F/	(16b-/LL	.	(16dd-\LL	.
.	16a-/JJ)	.	16cc\JJ)	.
8FF/J	16r	.	16r	.
.	16f'/	f	16aan'\	f
=6	=6	=6	=6	=6
.	(fq/	.	.	.
8EEn/L	[4dd-\)	.	(16aan\LL	.
.	.	.	16bb-\JJ)	.
8En/	.	.	16r	.
.	.	.	16an'/	p
8E/	(32dd-/LLL]	.	(16a/LL	.
.	32cc/	.	.	.
.	32b-/	.	16b-/JJ)	.
.	32a-/	.	.	.
8EE/J	32g/	.	16r	.
.	32f/	.	.	.
.	64en/L	.	16b-\	f
.	64f/J	.	.	.
.	32g/JJJ)	.	.	.
.	.	.	(b-q/	.
8EE-/L	(16c/LL	.	[4gg-\)	.
.	16b-/JJ)	.	.	.
8E-/	16r	.	.	.
.	16bb-'\	p	.	.
8E-/	(16bb-\LL	.	(32gg-\LLL]	.
.	.	.	32ff\	.
.	16aan\JJ)	.	32ee-\	.
.	.	.	32dd-\	.
8EE-/J	16r	.	32cc\	.
.	.	.	32b-\	.
.	16c'/	f	64an\L	.
.	.	.	64b-\J	.
.	.	.	32cc\JJJ)	.
=7	=7	=7	=7	=7
8DD-/L	(16c/LL	.	16f/LL	.
.	16B-/JJ)	.	16dd-/JJ	.
8GG-/	16r	.	16r	.
.	16d-'/	.	16b-'\	.
8EE-/	(16d-/LL	.	(16b-\LL	.
.	16e-/JJ)	.	16cc\JJ)	.
8FF/J	16r	.	16r	.
.	16c'/	p	16an'/	p
4BB-/	(16c/LL	.	(16a/LL	.
.	16d-/JJ)	.	16b-/JJ)	.
.	(8f/L	f	(8ddn\L	f
4r	8g/	.	8ee-\	.
.	[8a-/J	.	[8ff\J	.
=8	=8	=8	=8	=8
8EE-/L	8a-/L]	.	8ff\L]	.
(8E-/	16g/L)	.	16ee-\L)	.
.	16ff'/JJ	.	16dd-'\JJ	.
8F/	(16ff\LL	.	(16dd-\LL	.
.	16ee-\JJ)	.	16cc\JJ)	.
8G/J)	16r	.	16r	.
.	16dd-'\	p	16b-'\	p
4AA-/	(16dd-\LL	.	(16b-\LL	.
.	16cc\JJ)	.	16a-\JJ)	.
.	(8a-/L	f	(8ff\L	f
4r	8b-/	.	8gg\	.
.	[8cc/J	.	[8aa-\J	.
=9	=9	=9	=9	=9
8CC/L	8cc/L]	.	8aa-\L]	.
(8C/	16b-/L)	.	16gg\L)	.
.	16a-'/JJ	.	16ccc'\JJ	.
8Dn/	(16a-/LL	.	(16ccc\LL	.
.	16g/JJ)	.	16bb-\JJ)	.
8En/J)	16r	.	16r	.
.	16gg'\	p	16b-'\	p
8FF/L	(16gg\LL	.	(16b-\LL	.
.	16ff\JJ)	.	16a-\JJ)	.
(8F/	16r	.	16r	.
.	16cc'\	f	16aa-'\	f
8G/	(16cc\LL	.	(16aa-\LL	.
.	16bn\JJ)	.	16gg\JJ)	.
8A-/J)	16r	.	16r	.
.	16cc\	p	16ff\	p
=10	=10	=10	=10	=10
!(Cq/	!	!	!	!
8BBn/)	8dd\	.	8ff\	.
16r	(8bn\L	f	(8d/L	f
16A-'\	.	.	.	.
(16A-\LL	8cc\	.	8e-/	.
16G\JJ)	.	.	.	.
16r	[8dd\J	.	8f/J	.
16F\	.	.	.	.
(16F\LL	16dd/LL]	.	16g/LL)	.
16E-\)	16g/	.	(16cc/	.
16A-\	16f/	.	16bn/	.
16F\JJ	16a-/JJ)	.	16cc/JJ)	.
8G/L	8e-/L	.	(16aa-\LL	.
.	.	.	16gg\)	.
8GG/J	8d/J	.	(16cc\	.
.	.	.	16bn\JJ)	.
=11	=11	=11	=11	=11
8C/	8c/	.	4cc\	.
16r	(8g/L	.	.	.
16d-\	.	.	.	.
(16d-\LL	8b-/	.	4r	.
16c\JJ)	.	.	.	.
16r	16cc/L	.	.	.
16B-\	16dd-/JJ)	.	.	.
(16B-\LL	8en/	.	8r	.
16A-\JJ)	.	.	.	.
8D-/L	16r	.	(8ff\	p
.	16aa-'\	.	.	.
!	!	!	!ee-q/	!.
8BB-/	(16aa-\LL	.	&(8dd-\L&)	.
.	16gg\JJ)	.	.	.
8C/J	16r	.	16cc\L	.
.	16gg'\	p	16b-\JJ)	.
=12	=12	=12	=12	=12
4FF/	(16gg\LL	.	8aa-\	.
.	16ff\JJ)	.	.	.
.	(8a-\L	f	(8ff\L	f
4r	8b-\	.	8gg\	.
.	[8cc\J	.	[8aa-\J	.
4F\	8cc\L]	.	8aa-\L]	.
.	16b-\L)	.	16gg\L)	.
.	16bb-'\JJ	.	16dd-'\JJ	.
8r	(16bb-\LL	.	(16dd-\LL	.
.	16aa-\JJ)	.	16cc\JJ)	.
8FF/	16r	.	16r	.
.	16en'/	p	16b-'\	p
=13	=13	=13	=13	=13
8FF/	(16en/LL	.	(16b-/LL	.
.	16f/JJ)	.	16a-/JJ)	.
16r	8r	.	(8cc\L	f
16G-\	.	.	.	.
(16G-\LL	4r	.	8ee-\	.
16F\JJ)	.	.	.	.
16r	.	.	16ff\L	.
16E-\	.	.	16gg-\JJ)	.
(16E-\LL	8r	.	8an/	.
16D-\JJ)	.	.	.	.
8GG-/L	(8b-/L	.	16r	.
.	.	.	16ddd-'\	.
8EE-/	8g-/	.	(16ddd-\LL	.
.	.	.	16ccc\JJ)	.
8FF/J	16f/L	.	16r	.
.	16e-/JJ)	.	16ccc'\	p
=14	=14	=14	=14	=14
4BB-/	8dd-\	.	(16ccc\LL	.
.	.	.	16bb-\JJ)	.
.	(8d-/L	f	(8b-\L	f
4r	8e-/	.	8cc\	.
.	[8f/J	.	[8dd-\J	.
4B-\	8f/L]	.	8dd-\L]	.
.	16e-/L)	.	16cc\L)	.
.	16ee-'/JJ	.	16g-'\JJ	.
8r	(16ee-\LL	.	(16g-/LL	.
.	16dd-\JJ)	.	16f/JJ)	.
8B-\	16r	.	16r	.
.	16e-/	p	16an/	p
=15	=15	=15	=15	=15
8BB-/	(16e-/LL	.	(16an/LL	.
.	16d-/JJ)	.	16b-/JJ)	.
16r	8r	.	8ff\	f
(16An\	.	.	.	.
16A\LL	8r	.	(16ff\LK	.
16B-\JJ)	.	.	[8.gg-\J)	.
16r	8dd-\	f	.	.
16BB-/	.	.	.	.
(16BB-/LL	[4cc\	.	16gg-\LL]	.
16AAn/JJ)	.	.	16ff\	.
16r	.	.	(16ff\	.
16Gn\	.	.	16een\JJ)	.
(16G\LL	(16cc\LL]	.	(16ee\LK	.
16A-\JJ)	16cc-\)	.	[8.ff\J)	.
16r	(16cc-\	.	.	.
16AA-/	16b-\JJ)	.	.	.
=16	=16	=16	=16	=16
(16AA-/LL	[4b-\	.	16ff\LL]	.
16GG/JJ)	.	.	16ee-\	.
16r	.	.	(16ee-\	.
16F\	.	.	16ddn\JJ)	.
(16F\LL	16b-\LL]	.	(16dd\LK	.
16G-\JJ)	16an\	.	[8.ee-\J)	.
16r	(16a\	.	.	.
(16G-\	16b-\JJ	.	.	.
!BB-q/	!	!	!	!
8AAn/L)	16cc/LL)	.	8.ee-\L]	.
.	16f/J	.	.	.
8BB-/	[8b-/J	.	.	.
.	.	.	16dd-\Jk	.
8EE-/	8b-/L]	.	(16dd-\LL	.
.	.	.	16cc\JJ)	.
8FF/J	[8a-/J	.	16r	.
.	.	.	16ee-\	p
=17	=17	=17	=17	=17
8BB-/L	8.a-/L]	.	(16ee-\LL	.
.	.	.	16ddn\J)	.
8C/	.	.	[8ee-\J	f
.	16g/Jk	.	.	.
8AA-/	(16g/LL	.	8ee-\L]	.
.	16f/JJ)	.	.	.
8BB-/J	16r	.	[8dd-\J	.
.	16a-/	.	.	.
8E-\L	(16a-/LL	.	8.dd-\L]	.
.	16g/JJ)	.	.	.
8F\	4a-/	.	.	.
.	.	.	16cc\Jk	.
8D-\	.	.	(16cc\LL	.
.	.	.	16b-\JJ)	.
8E-\J	8g/	p	16r	.
.	.	.	16dd-'\	p
=18	=18	=18	=18	=18
4AA-/	8a-/	.	(16dd-\LL	.
.	.	.	16cc\JJ)	.
.	(8cc\L	f	(8ee-\L	f
4r	8dd-\	.	8ff\	.
.	[8ee-\J	.	[8gg-\J	.
4A-\	8ee-\L]	.	8gg-\L]	.
.	16dd-\L)	.	16ff\L)	.
.	16g-'\JJ	.	16ee-'\JJ	.
8r	(16g-/LL	.	(16ee-\LL	.
.	16f/JJ)	.	16dd-\JJ)	.
8A-\	16r	.	16r	.
.	16a-/	p	16cc\	p
=19	=19	=19	=19	=19
4AA-/	(16a-/LL	.	(16cc\LL	.
.	16gn/JJ)	.	16b-\JJ)	.
.	(8b-\L	f	(8ggn\L	f
4r	8cc\	.	8aa-\	.
.	[8dd-\J	.	[8bb-\J	.
4A-\	8dd-\L]	.	8bb-\L]	.
.	16cc\L)	.	16aa-\L)	.
.	16ff'\JJ	.	16dd-'\JJ	.
8r	(16ff\LL	.	(16dd-\LL	.
.	16ee-\JJ)	.	16cc\JJ)	.
8A-\	16r	.	16r	.
.	16dd-\	p	16g/	p
=20	=20	=20	=20	=20
8AA-/	(16dd-\LL	.	(16g/LL	.
.	16cc\JJ)	.	16a-/JJ)	.
(8E-\L	8r	.	8r	.
8F\	4r	.	4r	.
[8G-\J	.	.	.	.
8G-\L]	4.aan\	f	4.cc\	f
16F\L)	.	.	.	.
16E-'\JJ	.	.	.	.
(16E-/LL	.	.	.	.
16F/J)	.	.	.	.
8AAn/J	16r	.	16r	.
.	16e-'/	.	16ccc'\	.
=21	=21	=21	=21	=21
8BB-/	(16e-/LL	.	(16ccc\LL	.
.	16d-/JJ)	.	16bb-\JJ)	.
(8F\L	8r	.	8r	.
8G-\	4r	.	4r	.
[8A-\J	.	.	.	.
8A-\L]	4.ddn\	.	4.ccc-\	.
16G-\L)	.	.	.	.
16F\JJ	.	.	.	.
(16F\LL	.	.	.	.
16G-\J)	.	.	.	.
8BB-\J	16r	.	16r	.
.	16aa-\	.	16ddn\	.
=22	=22	=22	=22	=22
8C-\L	(16aa-\LL	.	(16dd\LL	.
.	16gg-\JJ)	.	16ee-\JJ)	.
8c-\	16r	.	16r	.
.	16ee-'\	.	16g-'/	.
8c-\	(16ee-\LL	.	(16g-/LL	.
.	16ddn\JJ)	.	16f/JJ)	.
8C-\J	16r	.	16r	.
.	16d'/	.	(16ff'\	.
8BB-\L	(16d/LL	.	16ff\LL	.
.	16e-/JJ)	.	16gg-\JJ)	.
8B-\	16r	.	16r	.
.	16ee-'\	.	16g-'/	.
8B-\	(16ee-\LL	.	(16g-/LL	.
.	16dd\JJ)	.	16f/JJ)	.
8BB-\J	16r	.	16r	.
.	16f/	.	16dd\	.
=23	=23	=23	=23	=23
8AAn\L	(16f/LL	.	(16dd\LL	.
.	16g-/JJ)	.	16ee-\J)	.
8An\	16r	.	[8gg-\J	.
.	16d/	.	.	.
8A\	(16d/LL	.	(32gg-\LLL]	.
.	.	.	32ff\	.
.	16e-/JJ)	.	32ee-\	.
.	.	.	32dd-\	.
8AA\J	16r	.	32cc\	.
.	.	.	32b-\	.
.	16e-/	.	64an\L	.
.	.	.	64b-\J	.
.	.	.	32cc\JJJ)	.
!	!(e-q/	!.	!	!
8AA-\L	[4cc-\)	.	16f\LL	.
.	.	.	16ee-\JJ	.
8A-\	.	.	16r	.
.	.	.	16eee-'\	.
8A-\	(32cc-/LLL]	.	(16eee-\LL	.
.	32b-/	.	.	.
.	32a-/	.	16dddn\JJ)	.
.	32g-/	.	.	.
8AA-\J	32f/	.	16r	.
.	32e-/	.	.	.
.	64d/L	.	16ff\	.
.	64e-/J	.	.	.
.	32f/JJJ)	.	.	.
=24	=24	=24	=24	=24
8GGn/L	(16B-/LL	.	(16ff\LL	.
.	16gn/JJ)	.	16ee-\JJ)	.
8C/	16r	.	16r	.
.	16g'/	.	16ee-'\	.
8AA-/	(16g/LL	.	(16ee-\LL	.
.	16a-/JJ)	.	16ff\JJ)	.
8BB-/J	16r	.	16r	.
.	16f'/	.	16a-'/	.
8EE-/L	(16f/LL	.	(16a-/LL	.
.	16e-/JJ)	.	16g/JJ)	.
8AA-/	16r	.	16r	.
.	16e-'/	.	16cc'\	.
8FF/	(16e-/LL	.	(16cc\LL	.
.	16f/JJ)	.	16dd\JJ)	.
8GG/J	16r	.	16r	.
.	16d'/	.	16f'/	.
=25	=25	=25	=25	=25
8CC/L	(16d/LL	.	(16f/LL	.
.	16c/JJ)	.	16e-/JJ)	.
8F/	16r	.	16r	.
.	16cc'\	.	16aa-'\	.
8D-/	(16cc\LL	.	(16aa-\LL	.
.	16dd-\JJ)	.	16bb-\JJ)	.
8E-/J	16r	.	16r	.
.	16b-'\	.	16gg'\	.
8AA-/L	(16b-\LL	.	(16gg\LL	.
.	16cc\JJ)	.	16aa-\JJ)	.
8BB-/	16r	.	16r	.
.	(16b-'\	.	16gg'\	.
8C/	16b-\LL	.	(16gg\LL	.
.	&(16a-\JJ&))	.	16ff\JJ)	.
8AA-/J	16r	.	16r	.
.	16g'/	.	16ee-'\	.
=26	=26	=26	=26	=26
8BB-/	(16g/LL	.	(16ee-\LL	.
.	16f/J)	.	16dd\JJ)	.
16r	8b-/J	.	8r	.
16d\	.	.	.	.
(16d\LL	(16b-\LK	.	8r	.
16e-\JJ)	[8.cc-\J)	.	.	.
16r	.	.	8gg-\	.
16E-\	.	.	.	.
(16E-\LL	16cc-\LL]	.	[4ff\	.
16D\JJ)	16b-\	.	.	.
16r	(16b-\	.	.	.
16c\	16an\JJ)	.	.	.
(16c\LL	(16a/LK	.	(16ff\LL]	.
16d-\JJ)	[8.b-/J)	.	16ff-\)	.
16r	.	.	(16ff-\	.
16D-\	.	.	16ee-\JJ)	.
=27	=27	=27	=27	=27
(16D-/LL	16b-/LL]	.	[4ee-\	.
16C/JJ)	16a-/	.	.	.
16r	(16a-/	.	.	.
(16B-\	16g/JJ)	.	.	.
16B-\LL	(16g/LK	.	16ee-\LL]	.
16c-\JJ)	[8.a-/J)	.	16ddn\	.
16r	.	.	(16dd\	.
16C-/	.	.	16ee-\JJ)	.
(16C-/LL	8a-/L]	.	(16ffn\LL	.
16BB-/JJ)	.	.	16b-\JJ	.
16r	8g-/J	.	4ee-\)	.
16AAn/	.	.	.	.
(16AA/LL	8f/L	.	.	.
16BB-/JJ)	.	.	.	.
16r	(16b-/L	.	8dd\	.
16BB-/	16a-/JJ)	.	.	.
=28	=28	=28	=28	=28
4EE-/	8gn/	.	8ee-\	.
.	(8b-\L	.	(8gg\L	.
4r	8cc\	.	8aa-\	.
.	[8dd-\J	.	[8bb-\J	.
4E-\	8dd-\L]	.	8bb-\L]	.
.	16cc\L)	.	16aa-\L)	.
.	16b-'\JJ	.	16dd-'\JJ	.
8r	(16b-/LL	.	(16dd-\LL	.
.	16a-/JJ)	.	16cc\JJ)	.
8E-\	16r	.	16r	.
.	16g/	p	16ee-\	p
=29	=29	=29	=29	=29
4EE-/	(16g/LL	.	(16ee-\LL	.
.	16f/JJ)	.	16ddn\JJ)	.
.	(8ddn\L	f	(8f/L	f
4r	8ee-\	.	8g/	.
.	[8ff\J	.	[8a-/J	.
4E-\	8ff\L]	.	8a-/L]	.
.	16ee-\L)	.	16g/L)	.
.	16a-'\JJ	.	16cc'/JJ	.
8r	(16a-/LL	.	(16cc\LL	.
.	16g/JJ)	.	16b-\JJ)	.
8E-\	16r	.	16r	.
.	16d/	p	16a-'/	p
=30	=30	=30	=30	=30
4EE-/	(16d/LL	.	(16a-/LL	.
.	16e-/JJ)	.	16g/JJ)	.
.	8r	.	8r	.
4r	4r	.	4r	.
2r	2r	.	2r	.
==	==	==	==	==
*-	*-	*-	*-	*-
!!!ENC: Craig Stuart Sapp
!!!END: 2005/05/16/
